X:347
T: Falscher Sinn (81a), S. 221
N: T0236V
O: Luxemburg
S: Singendes Volk, Esch-Alzette 1937 posth.]
N: Reuland, hhh Gabriel Petry, 1906
R: Liebeslieder]
M: 4/4
L: 1/8
K: D
DF | A2AdAFGE | F2FFE2
EF | G2F2G2B2 | A4z2
FA | d2dddcBA | B4A2z2 | G4F2
AA | B2AGF2E2 | D4z2

@@@ Tune index: 8401
